X:1
T: St. Kevin
C:
R:Jig
Q:180
K:Bb
M:6/8
L:1/16
|:F2|B2c2d2 d2c2B2|G6 G2A2B2|F2G2F2 F2B2d2|c6d4F2|
B2c2d2 d2c2B2|G6 G2A2B2|F2G2F2 F2B2d2|c6 B2A2B2|
a2A2F2 d2B2G2|c6 A4B2|c2A2F2 d2c2B2|A6 c4^c2|
d2A2A2 A2B2c2|B6 A4B2|c2G2G2 G2A2B2|A6c4:|
